X:1
T:Io son ferito
T:Io son ferito
T:Diminutions
T:Palestrina/Bovicelli
C:Palestrina/Bovicelli
L:1/8
M:2/2
K:F
V:1 treble nm="Piano" snm="Pno."
V:1
 z8 | z8 | z8 | z8 | F-F/>G/ A6 | A4 A>B A>G | G3 A F4 | G>A B4 A2 | A8 | D>E F>G A>B c>d | %10
w: ||||Io * * *|son fe- * * *|ri- to, ahi|las- * * *|so,|io * * * * * * *|
 _e2 d>c d2 d2 | B>c d>_e c3/2d/4e/4 c2 | c2 d4 c>B | A>G F>G D2 C2 | D8- | D8- | D8 | z8 | z8 | %19
w: son * * * fe-|ri- * * * to, ahi * *|las- * * *|||so!||||
 z4 G2 A2 | A B2 c A2 d2- | dc/B/ A/G/F/E/ D/E/F/D/ E/F/G/A/ | %22
w: e *|chi- * * mi die-||
 G3/2A/4B/4 A>G F/G/4A/4 G/>F/ E/F/4G/4 F/>E/ | D/E/F/G/ AD/4E/4F/4G/4 A/G/A/G/ A/G/4F/4G | G2 A6 | %25
w: ||* de|
 z8 | z8 | z8 | z8 | z8 | z4 D4- | D2 D2 D2 G2- | GFED C2 c2- | cBAG F A>GF/E/ | %34
w: |||||ac-|* cu- sar pur|* * * * * vor-|* * * * rei, * * * *|
 D/C/B,/C/ D/E/F/G/ F2 F>G | E3/2F/4G/4 F>E D2 d>e | ^c2 d>e A=B/c/ d/4c/4d/4c/4d/4c/4B/4c/4 | %37
w: * * * * * * * * * ma *|non * * * * * ho *|* pro- * * * * * * * * * * * *|
 d2 ^c2 d4 | z4 A4 | A>B A2 A3 G | G>A B2 B A>G A | A2 B6- | B4 A2 G2 | F>G A>B G>A B>c | %44
w: * * va;|e|senz' * * i- *|di- zio al mal * * *||* non *|si * * * * da * *|
 A/B/ c>BA/G/ F/E/D/E/ F/G/A/G/ | A/G/F/E/ D/E/F/G/ FGFG | E/F/G/F/ E/D/E/F/ EF/G/ E>D | D4 F4 | %48
w: fe- * * * * * * * * * * * * *|||de, *|
 F8 | E3/2F/4G/4 F>E D2 F2 | C/D/E/F/ G/A/B/c/ d ^c>=B c | d2 D2 D/E/F/G/ A/B/c/A/ | %52
w: |||* * non * * * * * * *|
 B2 G/A/B/c/ dc/B/ A/G/F/E/ | D/E/F/G/ A/F/G/A/ GA/G/ A/G/F/G/ | AG/>F/ G2 A4 | A8 | z8 | z8 | z8 | %59
w: * si * * * da * * * * * *||* * * * fe-|de:||||
 z8 | z8 | z8 | z4 A2- A/B/c/B/ | B2 B2 A>G A2 | B2 A3/2B/4c/4 B3 A | A4 A3 B | %66
w: |||ne * * * *|get- ta * * *|san- * * * * *|gue la *|
 G3/2A/4B/4 A>G F2 F2- | FF E>D E4 | E2 F6 | F8- | F8 | z4 G>A B2- | B7/2 c/ A4- | A2 A2 G>F G2 | %74
w: mia * * * * * pia-|* ga * * *|nuo- *|va.||Io * *|* * spasm'|* e * * *|
 A>B A>B AB/A/ B/A/B/c/ | G2 ^F3/2E/4F/4 G2 F2 | G8 | z4 E>F G2 | G6 FE | E8 | z8 | z8 | z8 | %83
w: mo- * * * * * * * * * *||ro,|e * *|mo- * *|ro;||||
 z4 A4 | A3/2B/4c/4 B2 B2 A/>G/A | B>A G/A/B/c/ A/B/c/B/ A/G/F/E/ | D2 G/F/E/D/ C/D/E/F/ G/E/F/G/ | %87
w: il|col- * * * po * * *|non * * * * * * * * * * * * *||
 ^F2 G>A FG F/>E/F | ^F2 G6- | G8 | z8 | z8 | z8 | z8 | z4 B3 A | B4 B3 c/B/ | A6 G>A | %97
w: * si * ve- * * * *|* de.||||||La *|mia ne- * *|mi- ca ar-|
 F>G F2 E/D/C/D/ E/F/G/E/ | D/E/F/D/ E/F/E/F/ G/F/G/F/ G/F/E/D/ | E2 EF E2 ED | D8 | D8 | z8 | %103
w: ma- * * ta * * * * * * *||* si * * ri- *|tro-|va.||
 A>B A>B AB/A/ B/A/G/F/ | E>A G2 A4- | A8 | z4 A4 | AB/A/ B/A/G/F/ GA/G/ A/G/F/G/ | A2 G2 A4 | z8 | %110
w: Che * * * * * * * * * *|* * * fia||tor-|nar * * * * * * a * * * * * *|* * lei||
 E6 FE | E4 A2 GF | F8- | F8 | _E>F G2 C>D E>F | G>A B>c d2 G>A | F2 E>F D/E/F/E/ F/E/D/E/ | %117
w: cru- * *|del cru- * *|del||par- * * * * * *||* ti- * * * * * * * * *|
 F6 ED | D8 | z8 | z8 | z4 F2- F/G/A/G/ | G4 A4 | B>c d2 G>A B3/2c/4B/4 | A2 G2 A>B A>G | G4 F3 E | %126
w: |to,|||che * * * *|sol m'ab-|bia * a sa- * * * *|* nar chi * * *|m'ha fe- *|
 E8 | D8 | z8 | z8 | z4 D/>E/F/4G/4A/4B/4 cB/>A/ | G2 F2 G4 | A8 | B4 B>c d2 | %134
w: ri-|to,|||che * * * * * * * *|* * sol|m'abbia|a sa- * *|
 Ac/B/ A/G/F/E/ D2 A2 | E>F G>A F>E F2 | F4 E2 D2 | E4 F4 | E2 D2 D>E D>E | %139
w: nar * * * * * * * chi|m'ha * * * * * *||* fe-|ri- * * * * *|
 DE/F/ E>D ^CD/C/ D/C/=B,/C/ | D2 ED D4 | B>c d2 A2 c2 | GABc d2 D2- | DEFG A2 d2 | dcBA B>G F>E | %145
w: |* * * to,|chi * * m'ha fe-|ri * * * * to,|* * * * * chi|m'ha * * * * * * *|
 D2 C2 D4 | D8- | D8 |] %148
w: * fe- ri-|to.||

